svg/color/cwar.svg

<?xml version="1.0" encoding="UTF-8" ?>
<!DOCTYPE svg PUBLIC "-//W3C//DTD SVG 1.1//EN" "http://www.w3.org/Graphics/SVG/1.1/DTD/svg11.dtd">
<svg width="250pt" height="250pt" viewBox="0 0 250 250" version="1.1" xmlns="http://www.w3.org/2000/svg">
<g id="#ffffffff">
<path fill="#ffffff" opacity="1.00" d=" M 0.00 0.00 L 117.60 0.00 C 89.50 1.95 62.09 13.22 41.20 32.21 C 22.41 49.20 8.85 72.00 3.23 96.73 C 1.89 102.05 1.39 107.53 0.00 112.83 L 0.00 0.00 Z" />
<path fill="#ffffff" opacity="1.00" d=" M 132.42 0.00 L 250.00 0.00 L 250.00 114.76 C 248.91 108.75 248.23 102.66 246.75 96.73 C 240.98 71.33 226.84 47.91 207.17 30.86 C 186.61 12.58 159.77 1.97 132.42 0.00 Z" />
<path fill="#ffffff" opacity="1.00" d=" M 73.69 74.59 C 76.10 74.16 78.53 73.69 81.00 73.76 C 103.34 73.78 125.70 73.79 148.05 73.75 C 150.29 73.71 152.74 73.97 154.47 75.55 C 160.05 80.29 165.44 85.25 170.51 90.54 C 171.90 92.09 173.52 93.80 173.55 96.02 C 173.94 102.41 173.69 108.83 173.74 115.24 C 167.23 115.34 160.73 115.34 154.22 115.24 C 154.06 109.19 154.71 103.11 154.17 97.09 C 153.52 94.81 150.86 95.36 149.04 95.17 C 125.68 95.18 102.31 95.17 78.95 95.19 C 77.19 94.98 74.62 95.38 73.74 93.43 C 73.15 87.17 73.83 80.87 73.69 74.59 Z" />
<path fill="#ffffff" opacity="1.00" d=" M 73.88 104.25 C 78.90 103.44 84.00 103.71 89.07 103.67 C 91.06 103.53 94.01 104.57 93.67 107.04 C 93.73 119.69 93.53 132.35 93.46 145.01 C 93.77 148.72 92.57 152.98 94.70 156.28 C 98.06 157.15 101.58 156.36 105.00 156.49 C 127.20 156.43 149.41 156.02 171.61 156.51 C 177.15 163.10 183.77 168.91 188.11 176.44 C 154.74 176.82 121.36 176.46 87.99 176.62 C 86.15 176.47 83.96 177.09 82.53 175.57 C 79.48 172.85 76.41 170.08 73.85 166.88 C 73.41 154.27 73.80 141.62 73.67 129.00 C 73.78 120.75 73.42 112.49 73.88 104.25 Z" />
<path fill="#ffffff" opacity="1.00" d=" M 0.00 132.39 C 1.47 151.14 6.61 169.70 15.94 186.09 C 30.02 211.35 53.16 231.35 80.16 241.70 C 91.21 246.14 102.98 248.18 114.68 250.00 L 0.00 250.00 L 0.00 132.39 Z" />
<path fill="#ffffff" opacity="1.00" d=" M 221.00 205.00 C 238.17 184.74 248.06 158.82 250.00 132.42 L 250.00 250.00 L 132.40 250.00 C 138.96 249.41 145.50 248.48 151.92 247.01 C 178.79 241.30 203.48 226.13 221.00 205.00 Z" />
</g>
<g id="#2b2a29ff">
<path fill="#2b2a29" opacity="1.00" d=" M 117.60 0.00 L 132.42 0.00 C 159.77 1.97 186.61 12.58 207.17 30.86 C 226.84 47.91 240.98 71.33 246.75 96.73 C 248.23 102.66 248.91 108.75 250.00 114.76 L 250.00 132.42 C 248.06 158.82 238.17 184.74 221.00 205.00 C 203.48 226.13 178.79 241.30 151.92 247.01 C 145.50 248.48 138.96 249.41 132.40 250.00 L 114.68 250.00 C 102.98 248.18 91.21 246.14 80.16 241.70 C 53.16 231.35 30.02 211.35 15.94 186.09 C 6.61 169.70 1.47 151.14 0.00 132.39 L 0.00 112.83 C 1.39 107.53 1.89 102.05 3.23 96.73 C 8.85 72.00 22.41 49.20 41.20 32.21 C 62.09 13.22 89.50 1.95 117.60 0.00 M 73.69 74.59 C 73.83 80.87 73.15 87.17 73.74 93.43 C 74.62 95.38 77.19 94.98 78.95 95.19 C 102.31 95.17 125.68 95.18 149.04 95.17 C 150.86 95.36 153.52 94.81 154.17 97.09 C 154.71 103.11 154.06 109.19 154.22 115.24 C 160.73 115.34 167.23 115.34 173.74 115.24 C 173.69 108.83 173.94 102.41 173.55 96.02 C 173.52 93.80 171.90 92.09 170.51 90.54 C 165.44 85.25 160.05 80.29 154.47 75.55 C 152.74 73.97 150.29 73.71 148.05 73.75 C 125.70 73.79 103.34 73.78 81.00 73.76 C 78.53 73.69 76.10 74.16 73.69 74.59 M 73.88 104.25 C 73.42 112.49 73.78 120.75 73.67 129.00 C 73.80 141.62 73.41 154.27 73.85 166.88 C 76.41 170.08 79.48 172.85 82.53 175.57 C 83.96 177.09 86.15 176.47 87.99 176.62 C 121.36 176.46 154.74 176.82 188.11 176.44 C 183.77 168.91 177.15 163.10 171.61 156.51 C 149.41 156.02 127.20 156.43 105.00 156.49 C 101.58 156.36 98.06 157.15 94.70 156.28 C 92.57 152.98 93.77 148.72 93.46 145.01 C 93.53 132.35 93.73 119.69 93.67 107.04 C 94.01 104.57 91.06 103.53 89.07 103.67 C 84.00 103.71 78.90 103.44 73.88 104.25 Z" />
</g>
</svg>

<?xml version="1.0" encoding="utf-8"?>
<!-- Generator: Adobe Illustrator 26.0.3, SVG Export Plug-In . SVG Version: 6.00 Build 0)  -->
<svg version="1.1" id="Layer_1" xmlns="http://www.w3.org/2000/svg" xmlns:xlink="http://www.w3.org/1999/xlink" x="0px" y="0px"
	 viewBox="0 0 250 250" style="enable-background:new 0 0 250 250;" xml:space="preserve">
<style type="text/css">
	.st0{fill:#FFFFFF;}
	.st1{fill:#2B2A29;}
</style>
<g id="_x23_ffffffff">
	<path class="st0" d="M73.7,74.6c2.4-0.4,4.8-0.9,7.3-0.8c22.3,0,44.7,0,67.1,0c2.2,0,4.7,0.2,6.4,1.8c5.6,4.7,11,9.7,16,15
		c1.4,1.5,3,3.3,3,5.5c0.4,6.4,0.1,12.8,0.2,19.2c-6.5,0.1-13,0.1-19.5,0c-0.2-6,0.5-12.1-0.1-18.2c-0.6-2.3-3.3-1.7-5.1-1.9
		c-23.4,0-46.7,0-70.1,0c-1.8-0.2-4.3,0.2-5.2-1.8C73.2,87.2,73.8,80.9,73.7,74.6z"/>
	<path class="st0" d="M73.9,104.2c5-0.8,10.1-0.5,15.2-0.6c2-0.1,4.9,0.9,4.6,3.4c0.1,12.7-0.1,25.3-0.2,38c0.3,3.7-0.9,8,1.2,11.3
		c3.4,0.9,6.9,0.1,10.3,0.2c22.2-0.1,44.4-0.5,66.6,0c5.5,6.6,12.2,12.4,16.5,19.9c-33.4,0.4-66.8,0-100.1,0.2c-1.8-0.1-4,0.5-5.5-1
		c-3-2.7-6.1-5.5-8.7-8.7c-0.4-12.6,0-25.3-0.2-37.9C73.8,120.8,73.4,112.5,73.9,104.2z"/>
</g>
<g id="_x23_2b2a29ff">
	<path class="st1" d="M117.6,0h14.8c27.4,2,54.2,12.6,74.8,30.9c19.7,17,33.8,40.5,39.6,65.9c1.5,5.9,2.2,12,3.2,18v17.7
		c-1.9,26.4-11.8,52.3-29,72.6c-17.5,21.1-42.2,36.3-69.1,42c-6.4,1.5-13,2.4-19.5,3h-17.7c-11.7-1.8-23.5-3.9-34.5-8.3
		c-27-10.3-50.1-30.3-64.2-55.6C6.6,169.7,1.5,151.1,0,132.4v-19.6c1.4-5.3,1.9-10.8,3.2-16.1c5.6-24.7,19.2-47.5,38-64.5
		C62.1,13.2,89.5,2,117.6,0 M73.7,74.6c0.1,6.3-0.5,12.6,0,18.8c0.9,1.9,3.5,1.6,5.2,1.8c23.4,0,46.7,0,70.1,0
		c1.8,0.2,4.5-0.4,5.1,1.9c0.5,6-0.1,12.1,0.1,18.2c6.5,0.1,13,0.1,19.5,0c-0.1-6.4,0.2-12.8-0.2-19.2c0-2.2-1.7-3.9-3-5.5
		c-5.1-5.3-10.5-10.2-16-15c-1.7-1.6-4.2-1.8-6.4-1.8c-22.4,0-44.7,0-67.1,0C78.5,73.7,76.1,74.2,73.7,74.6 M73.9,104.2
		c-0.5,8.2-0.1,16.5-0.2,24.8c0.1,12.6-0.3,25.3,0.2,37.9c2.6,3.2,5.6,6,8.7,8.7c1.4,1.5,3.6,0.9,5.5,1c33.4-0.2,66.8,0.2,100.1-0.2
		c-4.3-7.5-11-13.3-16.5-19.9c-22.2-0.5-44.4-0.1-66.6,0c-3.4-0.1-6.9,0.7-10.3-0.2c-2.1-3.3-0.9-7.6-1.2-11.3
		c0.1-12.7,0.3-25.3,0.2-38c0.3-2.5-2.6-3.5-4.6-3.4C84,103.7,78.9,103.4,73.9,104.2z"/>
</g>
</svg>
